Adwaita++/actions/22/investment-update-online-all.svg

<svg height="22" width="22" xmlns="http://www.w3.org/2000/svg">
  <path d="m11 3c-4.418278 0-8 3.581722-8 8 .00348.326651.026959.652782.070312.976562.087636-.407282.3792886-.805341.757813-1.023437l3.1582031-1.8222656c.7407551-.4272916 1.7160786-.1658654 2.1445313.5742187l-.0839844-.1464843 2.931641-1.6933594c.62633-.3618846 1.359854-.146585 1.849609.3496094l.152344-.0878907-.455078-.7949219c-.560986-.9784603.186443-2.2972081 1.322265-2.2988281h.002 1.46875c-1.463507-1.3070117-3.356268-2.0306121-5.318406-2.0332031zm4.539062 7.855469-1.373046.794922c-.62652.36281-1.361415.147252-1.851563-.34961l-3.0566405 1.765625c-.6840522.395236-1.5289623.149465-1.9980469-.464844l-1.859375 1.074219h-.00195c-.3816467.219898-.877599.27467-1.2753937.142578-.3740061-.124192-.6442854-.376019-.828125-.667968.9649664 3.457798 4.1151582 5.849388 7.7050781 5.849609.801869.000071 1.599191-.120417 2.365234-.357422-.229513-.50297-.365234-1.056862-.365234-1.642578 0-1.843561 1.293651-3.340513 3-3.796875v-.203125c.000895-.43037.277017-.811906.685547-.947266-.337175-.107036-.642329-.317176-.832031-.648437v-.002h-.002z" fill="#444" opacity=".3"/>
  <path d="m14.849403 6.0324475a.52837956.53379665 0 0 0 -.456474.8013394l.949777 1.6618302-1.754464 1.0133925-.328125-.56808a.57148571.57148571 0 0 0 -.78125-.2098217l-3.7979916 2.1930791-.4151782-.71875a.57148571.57148571 0 0 0 -.7801343-.2087056l-3.1573659 1.8225446a.57152042.57152042 0 1 0 .5714286.989955l2.6629464-1.53683.4140623.717634a.57148571.57148571 0 0 0 .7812503.209822l3.7979914-2.193081.328125.569197a.57148571.57148571 0 0 0 .78125.208705l2.24442-1.2968735.811384 1.4196415a.52837956.53379665 0 0 0 .915178.0011l2.329241-4.0747322a.52837956.53379665 0 0 0 -.015625-.5580627.52837956.53379665 0 0 0 -.441964-.2433036z" fill="#444"/>
  <path d="m16 13v1h-2v1h6v-1h-2v-1zm-1 3v4h4v-4z" fill="none"/>
  <path d="m17 13v1a3 3 0 0 0 -3 3 3 3 0 0 0 3 3 3 3 0 0 0 3-3h-1a2 2 0 0 1 -2 2 2 2 0 0 1 -2-2 2 2 0 0 1 2-2v1l.984375-.738281a2 2 0 0 1 .015625.007812v-.019531l1-.75-1-.75z" fill="#4285f4"/>
</svg>

<svg xmlns="http://www.w3.org/2000/svg" width="22" height="22" version="1.1">
 <defs>
  <style id="current-color-scheme" type="text/css">
   .ColorScheme-Text { color:#444444; } .ColorScheme-Highlight { color:#4285f4; }
  </style>
 </defs>
 <path class="ColorScheme-Text" d="m 11,3 c -4.418278,0 -8,3.581722 -8,8 0.00348,0.326651 0.026959,0.652782 0.070312,0.976562 C 3.157948,11.56928 3.4496006,11.171221 3.828125,10.953125 L 6.9863281,9.1308594 C 7.7270832,8.7035678 8.7024067,8.964994 9.1308594,9.7050781 L 9.046875,9.5585938 11.978516,7.8652344 c 0.62633,-0.3618846 1.359854,-0.146585 1.849609,0.3496094 L 13.980469,8.1269531 13.525391,7.3320312 C 12.964405,6.3535709 13.711834,5.0348231 14.847656,5.0332031 h 0.002 1.46875 C 14.854899,3.7261914 12.962138,3.002591 11,3 Z m 4.539062,7.855469 -1.373046,0.794922 c -0.62652,0.36281 -1.361415,0.147252 -1.851563,-0.34961 L 9.2578125,13.066406 C 8.5737603,13.461642 7.7288502,13.215871 7.2597656,12.601562 l -1.859375,1.074219 h -0.00195 C 5.0167939,13.895679 4.5208416,13.950451 4.1230469,13.818359 3.7490408,13.694167 3.4787615,13.44234 3.2949219,13.150391 4.2598883,16.608189 7.4100801,18.999779 11,19 c 0.801869,7.1e-5 1.599191,-0.120417 2.365234,-0.357422 C 13.135721,18.139608 13,17.585716 13,17 c 0,-1.843561 1.293651,-3.340513 3,-3.796875 V 13 c 8.95e-4,-0.43037 0.277017,-0.811906 0.685547,-0.947266 -0.337175,-0.107036 -0.642329,-0.317176 -0.832031,-0.648437 v -0.002 h -0.002 z" style="fill:currentColor;opacity:0.3"/>
 <path class="ColorScheme-Text" d="m 14.849403,6.0324475 a 0.52837956,0.53379665 0 0 0 -0.456474,0.8013394 l 0.949777,1.6618302 -1.754464,1.0133925 -0.328125,-0.56808 A 0.57148571,0.57148571 0 0 0 12.478867,8.7311079 L 8.6808754,10.924187 8.2656972,10.205437 A 0.57148571,0.57148571 0 0 0 7.4855629,9.9967314 L 4.328197,11.819276 a 0.57152042,0.57152042 0 1 0 0.5714286,0.989955 l 2.6629464,-1.53683 0.4140623,0.717634 a 0.57148571,0.57148571 0 0 0 0.7812503,0.209822 l 3.7979914,-2.193081 0.328125,0.569197 a 0.57148571,0.57148571 0 0 0 0.78125,0.208705 l 2.24442,-1.2968735 0.811384,1.4196415 a 0.52837956,0.53379665 0 0 0 0.915178,0.0011 L 19.965474,6.8338138 A 0.52837956,0.53379665 0 0 0 19.949849,6.2757511 0.52837956,0.53379665 0 0 0 19.507885,6.0324475 Z" style="fill:currentColor"/>
 <path d="m 16,13 v 1 h -2 v 1 h 6 v -1 h -2 v -1 z m -1,3 v 4 h 4 v -4 z" style="fill:none"/>
 <path class="ColorScheme-Highlight" d="m 17,13 v 1 a 3,3 0 0 0 -3,3 3,3 0 0 0 3,3 3,3 0 0 0 3,-3 h -1 a 2,2 0 0 1 -2,2 2,2 0 0 1 -2,-2 2,2 0 0 1 2,-2 v 1 l 0.984375,-0.738281 A 2,2 0 0 1 18,15.269531 V 15.25 l 1,-0.75 -1,-0.75 z" style="fill:currentColor;"/>
</svg>
